X:129
T:Vive Henry IV
R:Chanson
O:France
B:Le livre des Chansons (Henri Davenson) n°129
Z:<anamnese@caramail.com> -- http://anamnese.fr.st
M:C|
L:1/4
Q:1/4=150
K:C
A2 A A | ^G2 G c | B A ^G A | E4 | A2 A A | ^G2 G c | B A ^G A | E4 |
c2 B A | B2 B B | A A ^G F | E E/ F/ G G | C2 C C | D D E E | [A,2A2] z2 ||
W:Vive Henry IV, Vive ce roi vaillant ! (2x)
W:Ce diable à quatre
W:A le triple talent
W:De boire et de se battre
W:Et d'être un vert galant !


